icons/001-github.svg

<?xml version="1.0" encoding="UTF-8"?>
<svg xmlns="http://www.w3.org/2000/svg" xmlns:xlink="http://www.w3.org/1999/xlink" xmlns:svgjs="http://svgjs.com/svgjs" version="1.1" width="512" height="512" x="0" y="0" viewBox="0 0 512 512" style="enable-background:new 0 0 512 512" xml:space="preserve" class="">
  <g>
<g xmlns="http://www.w3.org/2000/svg">
	<g>
		<path d="M255.968,5.329C114.624,5.329,0,120.401,0,262.353c0,113.536,73.344,209.856,175.104,243.872    c12.8,2.368,17.472-5.568,17.472-12.384c0-6.112-0.224-22.272-0.352-43.712c-71.2,15.52-86.24-34.464-86.24-34.464    c-11.616-29.696-28.416-37.6-28.416-37.6c-23.264-15.936,1.728-15.616,1.728-15.616c25.696,1.824,39.2,26.496,39.2,26.496    c22.848,39.264,59.936,27.936,74.528,21.344c2.304-16.608,8.928-27.936,16.256-34.368    c-56.832-6.496-116.608-28.544-116.608-127.008c0-28.064,9.984-51.008,26.368-68.992c-2.656-6.496-11.424-32.64,2.496-68    c0,0,21.504-6.912,70.4,26.336c20.416-5.696,42.304-8.544,64.096-8.64c21.728,0.128,43.648,2.944,64.096,8.672    c48.864-33.248,70.336-26.336,70.336-26.336c13.952,35.392,5.184,61.504,2.56,68c16.416,17.984,26.304,40.928,26.304,68.992    c0,98.72-59.84,120.448-116.864,126.816c9.184,7.936,17.376,23.616,17.376,47.584c0,34.368-0.32,62.08-0.32,70.496    c0,6.88,4.608,14.88,17.6,12.352C438.72,472.145,512,375.857,512,262.353C512,120.401,397.376,5.329,255.968,5.329z" fill="#ff8a1d" data-original="#000000" style="" class=""/>
	</g>
</g>















</g>
</svg>

<svg width="512" height="512" viewBox="0 0 512 512" fill="none" xmlns="http://www.w3.org/2000/svg">
<path d="M255.968 5.32901C114.624 5.32901 0 120.401 0 262.353C0 375.889 73.344 472.209 175.104 506.225C187.904 508.593 192.576 500.657 192.576 493.841C192.576 487.729 192.352 471.569 192.224 450.129C121.024 465.649 105.984 415.665 105.984 415.665C94.368 385.969 77.568 378.065 77.568 378.065C54.304 362.129 79.296 362.449 79.296 362.449C104.992 364.273 118.496 388.945 118.496 388.945C141.344 428.209 178.432 416.881 193.024 410.289C195.328 393.681 201.952 382.353 209.28 375.921C152.448 369.425 92.672 347.377 92.672 248.913C92.672 220.849 102.656 197.905 119.04 179.921C116.384 173.425 107.616 147.281 121.536 111.921C121.536 111.921 143.04 105.009 191.936 138.257C212.352 132.561 234.24 129.713 256.032 129.617C277.76 129.745 299.68 132.561 320.128 138.289C368.992 105.041 390.464 111.953 390.464 111.953C404.416 147.345 395.648 173.457 393.024 179.953C409.44 197.937 419.328 220.881 419.328 248.945C419.328 347.665 359.488 369.393 302.464 375.761C311.648 383.697 319.84 399.377 319.84 423.345C319.84 457.713 319.52 485.425 319.52 493.841C319.52 500.721 324.128 508.721 337.12 506.193C438.72 472.145 512 375.857 512 262.353C512 120.401 397.376 5.32901 255.968 5.32901Z" fill="#CBD2D9"/>
</svg>
